X: 35225
T: Rosalie, The Prairie Flower
R: barndance
M: 4/4
K: Dmajor
|:BAGF G2 E2|DEDB, D4|BAGF G2 B2|A2 E2 A4|
BAGF G2 E2|DEDB, D4|EFGA B2 A2|G2 D2 G4:|
|:A2 GA B2 d2|A2 GA B4|G2 FG A2 c2|G2 FG A4|
BAGF G2 E2|DEDB, D4|EFGA B2 A2|G4- G4:|
|:fedc d2 B2|ABAF A4|fedc d2 f2|e2 B2 e4|
fedc d2 B2|ABAF A4|Bcde f2 e2|d2 A2 d2:|
e2 de f2 a2|e2 de f4|d2 cd e2 f2|d2 cd e4|
fedc d2 B2|ABAF A4|Bcde f2 e2|d4- d4:|

